X:1
T:Boston (Burnap), CM
T:Boston (Burnap), CM
T:Uzziah Christopher Burnap (1834-1900)
T:Public Domain Courtesy of the Cyber Hymnal™
C:Uzziah Christopher Burnap (1834-1900)
Z:Public Domain
Z:Courtesy of the Cyber Hymnal™
%%score ( 1 2 ) ( 3 4 )
L:1/8
M:3/4
K:Ab
V:1 treble 
V:2 treble 
V:3 bass 
V:4 bass 
V:1
 [Ec]2 [Ec]2 [=D=B]2 | [Ec]4 [CA]2 | [A,C]4 [=B,F]2 | [CE]4 E2 | [DF]4 [EA]2 | [=Dc]4 (BA) | %6
 [EB]6 | [Ec]2 [Ec]2 [CA]2 | [CE]4 [Ec]2 | [_Ge]4 [Ge]2 | [Fd]4 [FB]2 | (A2 G2) [EA]2 | c4 [GB]2 | %13
 [EA]6 |] %14
V:2
 x6 | x6 | x6 | x4 E2 | x6 | x4 =D2 | x6 | x6 | x6 | x6 | x6 | E4 x2 | (E2 A2) x2 | x6 |] %14
V:3
 [A,,E,]2 [A,,E,]2 [A,,F,]2 | [A,,E,]4 [A,,E,]2 | [A,,E,]4 [A,,=D,]2 | [A,,E,]4 [C,A,]2 | %4
 [D,A,]4 [C,A,]2 | [B,,A,]4 [F,A,]2 | [E,G,]6 | [A,,A,]2 [A,,A,]2 [A,,E,]2 | [A,,A,]4 [A,,A,]2 | %9
 [C,A,]4 [C,=A,]2 | [D,B,]4 [D,D]2 | (C2 B,2) [E,C]2 | [E,E]4 [E,D]2 | [A,C]6 |] %14
V:4
 x6 | x6 | x6 | x6 | x6 | x6 | x6 | x6 | x6 | x6 | x6 | E,4 x2 | x6 | x6 |] %14

